public/logos/haeppie.svg

<svg width="20" height="20" viewBox="0 0 20 20" fill="none" xmlns="http://www.w3.org/2000/svg">
  <rect width="20" height="20" rx="4" fill="#8740E7" />
  <path
    d="M8.60033 5.24559C8.81665 5.37338 8.98598 5.51039 9.15565 5.69851C9.20346 5.62132 9.25126 5.54412 9.30052 5.46459C9.4647 5.22071 9.4647 5.22071 9.61922 5.14108C9.91372 5.10735 10.0446 5.11512 10.2953 5.28541C10.4691 5.45961 10.4691 5.45961 10.6236 5.69851C10.6825 5.64955 10.6825 5.64955 10.7425 5.59959C10.7957 5.55668 10.8489 5.51377 10.9037 5.46956C10.9557 5.42707 11.0077 5.38457 11.0612 5.34078C11.6294 4.9628 12.2932 5.00882 12.9415 5.06144C13.6523 5.2345 14.2127 5.80727 14.6216 6.40899C14.9715 7.0066 15.0726 7.71927 14.9503 8.40606C14.7934 8.63282 14.6703 8.78212 14.3977 8.83881C14.1916 8.85036 13.9889 8.84897 13.7826 8.84311C13.7077 8.84255 13.6328 8.84199 13.5556 8.84141C13.317 8.83918 13.0786 8.83419 12.8401 8.82912C12.6781 8.82712 12.516 8.8253 12.354 8.82367C11.9574 8.81929 11.561 8.81242 11.1645 8.80423C11.3618 9.16502 11.5315 9.36285 11.9259 9.48609C12.5625 9.61995 13.1625 9.48514 13.7787 9.31096C14.076 9.27577 14.1763 9.33541 14.4095 9.52093C14.564 9.6802 14.564 9.6802 14.6026 9.98381C14.5929 10.2603 14.5678 10.3123 14.3901 10.5412C13.6869 11.039 12.6817 11.0468 11.8598 10.9543C11.3407 10.8393 10.8887 10.6536 10.4691 10.3173C10.4404 10.4109 10.4404 10.4109 10.4112 10.5064C10.3146 10.7154 10.3146 10.7154 10.1794 10.8249C9.93035 10.8962 9.78844 10.878 9.54196 10.7951C9.38917 10.6466 9.27975 10.4941 9.15565 10.3173C9.11083 10.3499 9.06602 10.3826 9.01984 10.4162C8.37017 10.8781 7.86427 11.036 7.06958 10.9543C6.38314 10.7846 5.85228 10.3714 5.46157 9.76979C5.40277 9.66168 5.34634 9.55216 5.29256 9.4413C5.26786 9.39203 5.24316 9.34275 5.21772 9.29199C4.91925 8.56278 4.94608 7.54526 5.18633 6.80343C5.50231 6.05721 6.02613 5.42204 6.76671 5.10991C7.33746 4.92344 8.0667 4.97787 8.60033 5.24559ZM6.68328 6.89302C6.37034 7.34944 6.29032 7.85888 6.37423 8.40606C6.53923 8.95256 6.84929 9.27616 7.33517 9.54582C7.79478 9.67291 8.13952 9.61478 8.54842 9.38282C8.92056 9.12174 9.13586 8.78112 9.23291 8.32643C9.26936 7.86067 9.24014 7.45909 9.00113 7.05229C8.6417 6.65249 8.33273 6.40947 7.79391 6.38038C7.32568 6.38743 7.01427 6.55603 6.68328 6.89302ZM11.2948 6.93284C11.1442 7.13844 11.1442 7.13844 11.0872 7.45046C11.9031 7.45046 12.719 7.45046 13.5596 7.45046C13.4267 6.99086 13.4267 6.99086 13.1346 6.70887C13.0876 6.66975 13.0406 6.63064 12.9922 6.59035C12.4003 6.14864 11.7434 6.43302 11.2948 6.93284Z"
    fill="white" />
  <path
    d="M6.03143 12.0764C6.20002 12.2052 6.34123 12.327 6.48764 12.4704C7.25742 13.1823 8.2614 13.7267 9.45238 13.8275C10.8068 13.8864 11.9964 13.6252 13.0332 12.8885C13.278 12.7033 13.496 12.5116 13.7076 12.3015C13.8836 12.1338 13.9521 12.0805 14.2134 12C14.4884 12.0145 14.6218 12.0685 14.8382 12.205C15.0039 12.4065 15.0273 12.4843 14.9755 12.7182C14.8517 12.9964 14.6007 13.2085 14.3622 13.4273C14.3222 13.4658 14.2822 13.5042 14.241 13.5439C13.3921 14.3005 11.9688 14.885 10.7196 14.9907C10.4836 14.9992 10.2495 15.0013 10.0133 14.9993C9.88809 14.9984 9.88809 14.9984 9.76031 14.9975C8.29921 14.9713 7.03046 14.4729 5.95209 13.6846C5.90003 13.6469 5.84797 13.6091 5.79434 13.5703C5.4723 13.3237 5.16938 13.0557 5 12.7197C5 12.4808 5.01353 12.3421 5.18843 12.1488C5.48085 11.9846 5.70201 11.9968 6.03143 12.0764Z"
    fill="white" />
</svg>

<svg xmlns="http://www.w3.org/2000/svg" fill="none" viewBox="0 0 20 20">
  <rect width="20" height="20" fill="#8740E7" rx="4" />
  <path fill="#fff"
    d="M8.6 5.246c.217.127.386.264.556.453.047-.078.095-.155.145-.234.164-.244.164-.244.318-.324.295-.034.426-.026.676.144.174.175.174.175.329.414l.118-.1a242.381 242.381 0 0 0 .319-.259c.568-.377 1.232-.331 1.88-.279.711.173 1.272.746 1.68 1.348.35.598.452 1.31.33 1.997-.158.227-.28.376-.553.433-.206.011-.41.01-.615.004l-.227-.002a60.078 60.078 0 0 1-.716-.012l-.486-.005c-.397-.005-.793-.012-1.19-.02.198.361.367.559.762.682.636.134 1.236 0 1.853-.175.297-.035.397.024.63.21.155.16.155.16.194.463-.01.276-.035.328-.213.557-.703.498-1.708.506-2.53.413-.52-.115-.971-.3-1.39-.637l-.059.19c-.096.208-.096.208-.232.318-.249.071-.39.053-.637-.03a3.145 3.145 0 0 1-.386-.478l-.136.1c-.65.461-1.156.619-1.95.537-.687-.17-1.218-.583-1.608-1.184a7.951 7.951 0 0 1-.17-.329l-.074-.149c-.299-.73-.272-1.747-.032-2.489.316-.746.84-1.381 1.58-1.693.571-.187 1.3-.132 1.834.136ZM6.683 6.893c-.313.456-.393.966-.309 1.513.165.547.475.87.961 1.14.46.127.805.069 1.213-.163.373-.261.588-.602.685-1.057.036-.465.007-.867-.232-1.274-.36-.4-.668-.643-1.207-.672-.468.007-.78.176-1.11.513Zm4.612.04c-.15.205-.15.205-.208.517h2.473c-.133-.46-.133-.46-.425-.741l-.143-.119c-.592-.441-1.249-.157-1.697.343ZM6.031 12.076c.169.13.31.251.457.394.77.712 1.773 1.257 2.964 1.357 1.355.06 2.544-.202 3.581-.938.245-.186.463-.377.675-.587.176-.168.244-.221.505-.302.275.014.409.069.625.205.166.201.19.28.138.513-.124.278-.375.49-.614.71l-.121.116c-.849.756-2.272 1.341-3.521 1.447-.236.008-.47.01-.707.008l-.253-.002c-1.46-.026-2.73-.524-3.808-1.312l-.158-.115c-.322-.246-.625-.514-.794-.85 0-.24.014-.378.188-.571.293-.164.514-.152.843-.073Z" />
</svg>
